usr/share/icons/big-icons/symbolic/actions/im-identi.ca.svg

<svg xmlns="http://www.w3.org/2000/svg" viewBox="0 0 16 16">
  <defs id="defs3051">
    <style type="text/css" id="current-color-scheme">
      .ColorScheme-Text {
        color:#eff0f1;
      }
      </style>
  </defs>
  <path style="fill:currentColor;fill-opacity:1;stroke:none" 
     d="M 7 2 A 5 5.00001 0 0 0 2 7 A 5 5.00001 0 0 0 2.8164062 9.7304688 L 2 13 L 4.5097656 11.328125 A 5 5.00001 0 0 0 7 12 A 5 5.00001 0 0 0 8.7578125 11.675781 A 3.5 3.5 0 0 1 8.25 10.794922 A 4 4 0 0 1 7 11 A 4 4 0 0 1 3 7 A 4 4 0 0 1 7 3 A 4 4 0 0 1 10.882812 6.0566406 A 3.5 3.5 0 0 1 11.5 6 A 3.5 3.5 0 0 1 11.904297 6.0253906 A 5 5.00001 0 0 0 7 2 z M 11.5 7 A 2.5 2.5 0 0 0 9 9.5 A 2.5 2.5 0 0 0 10.361328 11.722656 L 11.5 14 L 12.638672 11.722656 A 2.5 2.5 0 0 0 14 9.5 A 2.5 2.5 0 0 0 11.5 7 z M 11.5 8 A 1.5 1.5 0 0 1 13 9.5 A 1.5 1.5 0 0 1 11.5 11 A 1.5 1.5 0 0 1 10 9.5 A 1.5 1.5 0 0 1 11.5 8 z "
     class="ColorScheme-Text"
     />
</svg>

<svg xmlns="http://www.w3.org/2000/svg" viewBox="0 0 16 16">
<defs id="defs3051">
<style id="current-color-scheme" type="text/css">
.ColorScheme-Text{color:#fcfcfc}
</style>
</defs>
<path d="M7 2a5 5 0 0 0-5 5 5 5 0 0 0 .816 2.73L2 13l2.51-1.672A5 5 0 0 0 7 12a5 5 0 0 0 1.758-.324 3.5 3.5 0 0 1-.508-.881A4 4 0 0 1 7 11a4 4 0 0 1-4-4 4 4 0 0 1 4-4 4 4 0 0 1 3.883 3.057A3.5 3.5 0 0 1 11.5 6a4 4 0 0 1 .404.025A5 5 0 0 0 7 2m4.5 5A2.5 2.5 0 0 0 9 9.5a2.5 2.5 0 0 0 1.361 2.223L11.5 14l1.139-2.277A2.5 2.5 0 0 0 14 9.5 2.5 2.5 0 0 0 11.5 7m0 1A1.5 1.5 0 0 1 13 9.5a1.5 1.5 0 0 1-1.5 1.5A1.5 1.5 0 0 1 10 9.5 1.5 1.5 0 0 1 11.5 8" class="ColorScheme-Text" style="fill:currentColor;fill-opacity:1;stroke:none"/>
</svg>
